X:1
T:How Oft in Holy Converse
T:How Oft in Holy Converse
T:William James Kirkpatrick
T:Frances Jane (Fanny) Crosby, 1885
T:Public Domain Courtesy of the Cyber Hymnal™
C:William James Kirkpatrick
Z:Public Domain
Z:Courtesy of the Cyber Hymnal™
%%score 1 2
L:1/8
Q:1/4=115
M:3/4
K:F
V:1 treble 
V:2 bass 
V:1
 [Fc]2 | [Fc]3 [Fd] [Fc][FA] | [Fc]2 [FA]2 F2 | [Fc]3 [Fd] [Fc][FA] | [EG]4 [Ec]2 | %5
w: 1.~How|oft in ho- ly|con- verse With|Christ, my Lord, a-|lone, I|
w: 2.~They|passed through toils and|tri- als, And|though the strife was|long, They|
w: 3.~My|soul takes up the|cho- rus And,|press- ing on my|way, Com-|
w: 4.~Through|grace I soon shall|con- quer And|reach my home on|high; And|
 [Fc]3 [Fd] [Fc][FA] | [Fc]2 [FA]2 F2 | [FA]3 F [EG][EG] |[M:2/4] [CF]4 || %9
w: seem to hear the|mil- lions That|sing a- round His|throne:|
w: share the vic- tor’s|con- quest And|sing the vic- tor’s|song:|
w: mun- ing still with|Je- sus, I|sing from day to|day:|
w: through e- ter- nal|ag- es I’ll|shout be- yond the|sky:|
"^Refrain" [FA][CG] [CF][CF] | [EG]2 [FA]2 | [FA][CG] [CF][CF] | [EG]2 [CF]2 | [FA][CG] [CF][CF] | %14
w: |||||
w: |||||
w: Hal- le- lu- jah!|A- men!|Hal- le- lu- jah!|A- men!|Hal- le- lu- jah!|
w: |||||
 [EG]2 [FA]2 | [Gc]4 | [FA]2 z2 | [EG]4 | [CF]4 |] %19
w: |||||
w: |||||
w: A- men!|A-|men!|A-|men!|
w: |||||
V:2
 [F,A,]2 | [F,A,]3 [F,B,] [F,A,][F,C] | [F,A,]2 [F,C]2 [F,A,]2 | [F,A,]3 [F,B,] [F,A,][F,C] | %4
 [C,C]4 [C,G,]2 | [F,A,]3 [F,B,] [F,A,][F,C] | [F,A,]2 [F,C]2 [F,A,]2 | %7
 [C,C]3 [C,A,] [C,B,][C,B,] |[M:2/4] [F,A,]4 || [F,C][F,B,] [F,A,][F,A,] | [C,C]2 [F,C]2 | %11
 [F,C][F,B,] [F,A,][F,A,] | [C,B,]2 [F,A,]2 | [F,C][F,B,] [F,A,][F,A,] | [C,C]2 [F,C]2 | [E,C]4 | %16
 [F,C]2 z2 | [C,B,]4 | [F,,F,A,]4 |] %19

